X:1
T:Si me voyez face triste
T:Si me voyez face triste
T:Clément Janequin
T:A4 (8,26389 x 11,6875)
C:Clément Janequin
Z:A4 (8,26389 x 11,6875)
%%score [ 1 2 3 4 ]
L:1/8
Q:1/4=120
M:2/2
K:C
V:1 treble nm="Soprano" snm="S"
V:2 treble nm="Alto" snm="A"
V:3 treble-8 nm="Tenor" snm="T"
V:4 bass nm="Bass" snm="B"
V:1
 G4 G2 G2 | G4 z4 | c4 c2 c2 | B4 B4 | A2 A2 A2 A2 | G3 F/E/ F4 | E4 z2 E2 | G4 F4 | E4 z2 E2 | %9
w: Si me voy-|ez|si me voy-|ez fa-|ce triste et do-|len- * * *|te Un|teint pas-|sé ou|
 G2 G2 F2 E2 | D2 D2 E2 G2 | F2 E2 D4- | D4 z4 | G4 G2 G2 | G4 z4 | c4 c2 c2 | B4 B4 | %17
w: mort pour di- re|mieux, ou mort pour|di- re mieux,|_|Di- tes pour|sûr|di- tes pour|sûr sa|
 A2 A2 A2 A2 | G3 F/E/ F4 | E4 z2 E2 | G4 F4 | E4 z2 E2 | G2 G2 F2 E2 | D2 D2 E2 G2 | F2 E2 D4- | %25
w: maî- tresse est ab-|sen- * * *|te Ce-|la le|fait ain-|si de- ve- nir|vieux, ain- si de-|ve- nir vieux.|
 D4 z4 | G4 G2 G2 | A2 A2 c4 | B3 A G2 c2- | cB B4 A2 | B4 z2 B2 | B2 B2 A2 A2 | c2 c2 B2 A2 | %33
w: _|Car ma vie|est ès ray-|ons _ _ de|_ _ ses _|yeux Le|seul so- leil qu'en|ce mon- de ré-|
 G4 G4 | z2 G2 G2 G2 | A2 c2 B2 d2- | d2 c4 B2 | c2 C2 C2 D2 | E4 z4 | z2 G2 G2 G2 | A2 A2 B2 B2 | %41
w: vè- re|Com- me des|rais de Phe- bus|_ grâ- ci-|eux Se pais- sent|fleurs|se pais- sent|fleurs, se pais- sent|
 c2 c2 d3 c | B2 c2 A4 | G2 G2 G2 G2 | A2 c2 B2 A2 | G2 E2 F2 D2- | D2 B2 B2 B2 | c2 e2 d2 d2 | %48
w: fleurs du- rant la|pri- ma- ve-|re, se pais- sent|fleurs du- rant la|pri- ma- ve- re,|_ se pais- sent|fleurs du- rant la|
 c2 c2 B2 A2- | AG G4 ^F2 | G8 |] %51
w: pri- ma- ve- *||re.|
V:2
 z8 | B,4 B,2 B,2 | G,8 | G4 G2 G2 | F4 E4 | E2 B,2 D2 D2 | C4 B,4 | B,4 D4 | C4 G,2 C2 | %9
w: |Si me voy-|ez,|si me voy-|ez fa-|ce triste et do-|len- te|Un teint|pas- sé ou|
 B,2 G,2 A,2 C2 | B,4 z2 G,2 | A,2 C2 A,2 A,2 | B,8 | z8 | B,4 B,2 B,2 | G,8 | G4 G2 G2 | F4 E4 | %18
w: mort pour di- re|mieux ou|mort pour di- re|mieux,||Di- tes pour|sûr,|di- tes pour|sûr sa|
 E2 B,2 D2 D2 | C4 B,4 | B,4 D4 | C4 G,2 C2 | B,2 G,2 A,2 C2 | B,4 z2 G,2 | A,2 C2 A,2 A,2 | %25
w: maî- tresse est av-|sen- te|Ce- la|le fait ain-|si de- ve- nir|vieux ain-|si de- ve- nir|
 B,4 D4 | D2 D2 E2 E2 | C2 F2 E2 F2 | G4 z2 G2 | G2 G2 E2 E2 | E2 G2 G2 G2 | D2 D2 F2 F2 | %32
w: vieux. Car|ma vie est ès|ray- ons de ses|yeux ès|ray- ons de ses|yeux Le seul so-|leil qu'en ce mon-|
 EDEF G2 F2 | E4 E4 | D4 D2 D2 | F2 G2 G2 G2 | E2 F2 G2 D2 | E2 E2 F2 F2 | G3 F E2 E2 | F2 D4 E2 | %40
w: de _ _ _ _ ré-|vè- re|Com- me des|rais de Phe- bus|grâ- ci- eux Se|pais- sent fleurs du-|rant la pri- ma-|ve- re, se|
 C2 C2 D2 D2 | E2 E2 F2 G2 | D2 E3 D D2 | E2 E2 D2 E2 | F2 F2 G2 F2 | E2 E2 D4 | D2 D2 D2 D2 | %47
w: pais- sent fleurs du-|rant la pri- ma-|ve- * * *|re, se pais- sent|fleurs du- rant la|pri- ma- ve-|re, se pais- sent|
 E2 G2 G2 G2 | EDEF G2 F2 | E4 D4 | D8 |] %51
w: fleurs du- rant la|pri- * * * * ma-|ve- *|re.|
V:3
 z8 | d4 d2 d2 | e2 e2 e2 e2 | d2 d2 d2 d2 | d2 d2 c4 | B2 E2 A4 | A4 G4 | z2 E2 A4- | A4 E2 G2- | %9
w: |Si me voy-|ez, si me voy-|ez fa- ce triste|et do- len-|te Un teint|pas- sé|ou mort,|_ ou mort|
 G2 E2 F2 G2 | G4 z2 E2 | F2 G2 G2 ^F2 | G8 | z8 | d4 d2 d2 | e2 e2 e2 e2 | d2 d2 d2 d2 | %17
w: _ pour di- re|mieux ou|mort pour di- re|mieux,||Di- tes pour|sûr, di- tes pour|sûr sa maî- tresse|
 d2 d2 c4 | B2 E2 A4 | A4 G4 | z2 E2 A4- | A4 E2 G2- | G2 E2 F2 G2 | G4 z2 E2 | F2 G2 G2 ^F2 | %25
w: est ab- sen-|te Ce- la|le fait|ain- si,|_ ain- si|_ de- ve- nir|vieux ain-|si de- ve- nir|
 G4 B4 | B2 B2 c4 | z2 c2 c2 c2 | d2 d2 e2 e2 | d2 cB c2 c2 | B8 | z2 d2 d2 d2 | c2 A2 d2 d2 | %33
w: vieux. Car|ma vie est|car ma vie|est ès ray- ons|de _ _ _ se|yeux|Le seul so-|leil qu'en ce mon-|
 B2 G2 c4 | B2 B2 B2 B2 | c2 e2 d2 B2 | c2 c2 d2 G2 | G2 G2 A2 A2 | B2 B2 c2 c2 | d3 c B2 c2 | %40
w: de ré- vè-|re Com- me des|rais de Phe- bus|grâ- ci- eux Se|pais- sent fleurs, se|pais- sent fleurs du-|rant la pri- ma-|
 A4 G4 | z4 z2 G2 | G2 G2 A4 | z2 B2 B2 B2 | c2 c2 d3 c | B2 c2 A4 | G8 | z2 B2 B2 B2 | %48
w: ve- re|se|pais- sent fleurs|se pais- sent|fleurs du- rant la|pri- ma- ve-|re|se pais- sent|
 c2 c2 d3 c | B2 c2 A4 | G8 |] %51
w: fleurs du- rant la|pri- ma- ve-|re.|
V:4
 z8 | G,4 G,2 G,2 | C,4 C,4 | G,,2 G,,2 G,,2 G,,2 | D,4 A,,2 A,,2 | E,2 E,2 D,4 | z2 A,,2 E,4 | %7
w: |Si me voy-|ez fa-|ce triste et do-|len- te Un|teint pas- sé|Un teint|
 E,4 D,4 | z2 A,,2 C,B,,C,D, | E,2 E,2 D,2 C,2 | G,,2 G,,2 C,4 | z2 C,2 D,2 D,2 | G,,8 | z8 | %14
w: pas- sé|ou mort _ _ _|_ pour di- re|mieux, ou mort|pour di- re|mieux,||
 G,4 G,2 G,2 | C,4 C,4 | G,,2 G,,2 G,,2 G,,2 | D,4 A,,2 A,,2 | E,2 E,2 D,4 | z2 A,,2 E,4 | %20
w: Di- tes pour|sûr sa|maî- tresse est ab-|sen- te Ce-|la le fait|Ce- la|
 E,4 D,4 | z2 A,,2 C,B,,C,D, | E,2 E,2 D,2 C,2 | G,,2 G,,2 C,4 | z2 C,2 D,2 D,2 | G,,8 | %26
w: le fait|ain- si _ _ _|_ de- ve- nir|vieux, ain- si|de- ve- nir|vieux.|
 G,4 C,2 C,2 | F,E,F,G, A,2 A,2 | G,6 C,2 | G,4 A,4 | E,4 G,4 | G,2 G,2 D,2 D,2 | A,2 A,2 G,2 D,2 | %33
w: Car ma vie|est _ _ _ _ ès|ray- ons|de ses|yeux Le|seul so- leil qu'en|ce mon- de ré-|
 E,4 C,4 | z2 G,2 G,2 G,2 | F,2 C,2 G,2 G,2 | A,2 A,2 G,4 | C,4 F,2 F,2 | E,3 F,/G,/ A,4 | %39
w: vèr- re|Com- me des|rais de Phe- bus|grâ- ci- eux|Se pais- sent|fleurs _ _ _|
 D,2 G,4 z2 | z4 z2 G,,2 | C,2 E,2 D,2 G,,2- | G,,2 C,2 F,2 F,2 | E,D,E,F, G,2 E,2 | %44
w: du- rant|la|pri- ma- ve- re,|_ se pais- sent|fleurs _ _ _ _ du-|
 A,2 A,2 G,2 D,2 | E,2 C,2 D,4 | G,,8 | z2 E,2 G,2 G,2 | A,2 A,2 G,2 D,2 | E,2 C,2 D,4 | G,,8 |] %51
w: rant,- du- rant la|pri- ma- ve-|re|se pais- sent|feurs du- rant la|pri- ma- ve-|re.|

